!!!ONB: MCCC : IJH0448_04 : Extracted Monophonic Melody
!!!COM: Haydn, Joseph
!!!OPR: String Quartet in E-flat major
!!!OMV: 4
!!!SCT: Hob.III:64 ; Op.64 No.6
!!!ODT: 1791///
**kern
*thru
*k[b-e-a-]
*E-:
*clefF
*M2/4
16g
16a-
=1
8b-
8b-
8b-
16a-
16b-
=2
8cc
8cc
8cc
16dd
16ee-
=3
8ff
16ff
16gg
8aa-
16gg
16aa-
=4
16bb-
16aa-
16gg
16ff
8ee-
8b-
=5
8a
8a-
8g
8g-
=6
16f
16e-
16d
16e-
8f
8g
=7
8f
8e-
8d
8c
=8
16B-
16A
16B-
16c
8B-
16g
16a-
=9
8b-
8b-
8b-
16a-
16b-
=10
8cc
8cc
8cc
16dd
16ee-
=11
8ff
16ff
16gg
8aa-
16gg
16aa-
=12
16bb-
16aa-
16gg
16ff
8ee-
16ee-
16ff
=13
16gg
16ff
16ee-
16dd
8cc
8b
=14
8cc
8b
8cc
16dd
16ee-
=15
16ff
16gg
16ff
16ee-
16dd
16cc
16b-
16a
=16
4b-
8r
8bb-
=17
16aa-
16bb-
16aa-
16gg
8ff
8ee-
=18
16dd
16ee-
16dd
16cc
8b-
8bb-
=19
16aa-
16bb-
16aa-
16gg
8ff
8ee-
=20
16dd
16ee-
16dd
16cc
8b-
8ee-
=21
16e-
16f
16e-
16d
8e-
8dd-
=22
16cc
16dd-
16cc
16b
8cc
8b-
=23
8a
8a-
8g
8cc
=24
4e-
8d
8b-
=25
16a
16b-
16cc
16dd
16ee-
16ff
16gg
16aa
=26
8bb-
8ff
8ddd
8bb-
=27
8aa
8ccc
8eee-
8aa
=28
16bb-
16ccc
16bb-
16aa
8bb-
8bb-
=29
8aa
8ccc
8eee-
8aa
=30
16bb-
16ccc
16bb-
16aa
8bb-
8bb-
=31
8aa
8ccc
8eee-
8aa
=32
2bb-
=33
2bb-[
=34
4bb-]
4aa-[
=35
4aa-]
4b-[
=36
16b-]
16dd
16ee-
16ff
8gg
8b-
=37
16a-
16cc
16dd
16ee-
8ff
8a-
=38
16g
16b-
16cc
16dd
8ee-
8g
=39
8f
8e
8f
8e
=40
16f
16g
16a-
16b-
8cc
8cc
=41
8b-
8g
8a-
16g
16f
=42
8e-
8cc
8b-
8cc
=43
8b-
16ee-
16b-
16b-
16a-
16g
16a-
=44
8g
8cc
8b-
8cc
=45
8b-
16ee-
16b-
16b-
16a-
16g
16f
=46
4e-
4r
=47
4e-
8r
8bb-
=48
4bb-
4aa-
=49
16gg
16ff
16gg
16aa-
8gg
8gg
=50
4gg
4ff
=51
16ee-
16dd
16ee-
16ff
8ee-
8gg
=52
8gg
8gg-
8ff
8ccc
=53
8ee-
8dd
4bb-
=54
8bb-
16aa
16gg
8gg
16ff
16ee
=55
4.ff
16fff
16eee-
=56
8ddd
16ddd
16ccc
16bb-
16aa
16gg
16ff
=57
8ee-
16ee-
16dd
16ee-
16dd
16cc
16b-
=58
4.a
16b-
16cc
=59
16dd
16cc
16b-
16a
8b-
8cc
=60
16dd
16ee-
16ff
16dd
8b-
8cc
=61
16dd
16ee-
16ff
16dd
8b-
8ff
=62
16bb-
16ccc
16ddd
16ccc
16bb-
16aa
16gg
16ff
=63
16ee-
16ff
16gg
16ff
16ee-
16dd
16cc
16b-
=64
16a
16b-
16cc
16b-
16a
16g
16f
16e-
=65
16d
16b-
16d
16b-
16e-
16b-
16e-
16b-
=66
16f
16b-
16f
16b-
16g
16b-
16g
16b-
=67
16d
16b-
16d
16b-
16e-
16b-
16e-
16b-
=68
16e
16b-
16e
16b-
16f
16b-
16f
16b-
=69
16g-
16b-
16g-
16b-
16f
16b-
16f
16b-
=70
16e
16dd-
16cc
16b-
16a
16b-
16a
16b-
=71
16bb-
16dd-
16cc
16b-
16a
16b-
16a
16b-
=72
16a
16b-
16cc
16dd
16ee-
16ff
16gg
16aa
=73
16bb-
16aa
16bb-
16ff
16gg
16ff#
16gg
16ee-
=74
8dd
8ff
8a
8cc
=75
4b-
8r
16b-
16cc
=76
8dd
4r
16dd
16ee-
=77
8ff
4r
16ff
16gg
=78
8aa-
4r
16aa-
16bb-
=79
8ccc
16ccc
16bb-
8aa-
16aa-
16gg
=80
4ff
8r
16ff
16gg
=81
8aa-
16aa-
16gg
8ff
16ff
16ee-
=82
4dd
4r
=83
4.r
16g
16a-
=84
8b-
8b-
8b-
16a-
16b-
=85
8cc
8cc
8cc
16dd
16ee-
=86
8ff
16ff
16gg
8aa-
16gg
16aa-
=87
16bb-
16aa-
16gg
16ff
8ee-
8b-
=88
8a
8a-
8g
8g-
=89
16f
16e-
16d
16e-
8f
8g
=90
8f
8e-
8d
8c
=91
16B-
16A
16B-
16c
8B-
16g
16a-
=92
8b-
8b-
8b-
16a-
16b-
=93
8cc
8cc
8cc
16b-
16cc
=94
8dd-
16b-
16cc
8dd-
8b-
=95
16a-
16g
16a-
16b-
8a-
16ff
16gg
=96
8aa-
16ff
16gg
8aa-
8b
=97
4cc
8r
16cc
16dd
=98
8ee
8ee
8ee
16dd
16ee
=99
4ff
8r
16b-
16cc
=100
8dd
8dd
8dd
16cc
16dd
=101
4ee-
4r
=102
2r
=103
2r
=104
4ee-
4ddd-
=105
4ccc
4r
=106
4ff
4eee-
=107
4ddd
4r
=108
4gg
4fff
=109
16eee-
16fff
16eee-
16ddd
8ccc
16ccc
16bb-
=110
16aa-
16bb-
16aa-
16gg
8ff
16aa-
16gg
=111
16ff
16gg
16ff
16ee-
16dd
16ee-
16dd
16cc
=112
16b
16cc
16dd
16cc
16b
16a-
16g
16f
=113
16e-
16cc
16gg
16aa-
16gg
16ee-
16dd
16cc
=114
16b
16cc
16dd
16b
16g
16a-
16g
16f
=115
16e-
16cc
16gg
16aa-
16gg
16ee-
16dd
16cc
=116
16b
16cc
16dd
16b
16g
16a-
16g
16f
=117
16e-
16cc
16ee-
16cc
16ee-
16cc
16ee-
16cc
=118
16e-
16b-
16dd-
16b-
16dd-
16b-
16dd-
16b-
=119
4cc
4a-[
=120
16a-]
16g
16b-
16a-
16g
16f
16e-
16g
=121
4a-
8r
16ddd-
16ccc
=122
8bb-
16bb-
16aa-
8gg
16gg
16bb-
=123
4aa-
8r
16ccc
16aa-
=124
8gg
16gg
16ff
8ee
16ee
16gg
=125
4ff
8r
16aa-
16ff
=126
8gg-
16gg-
16ff
8ee-
16ee-
16cc
=127
8dd-
4ff
8aa-[
=128
8aa-]
4ff
8dd
=129
8ee-
4gg
8bb-[
=130
8bb-]
4gg
8ee
=131
8ff
4gg
8aa-[
=132
8aa-]
4b-
8gg[
=133
8gg]
4ff
8ee-
=134
4dd
8r
16b-
16cc
=135
8dd
4r
16dd
16ee-
=136
8ff
4r
16ff
16gg
=137
8aa-
4r
16aa-
16bb-
=138
8ccc
16ccc
16bb-
8aa-
16aa-
16gg
=139
4ff
8r
16ff
16gg
=140
8aa-
16aa-
16gg
8ff
16ff
16ee-
=141
4dd
4r
=142
4.r
16g
16a-
=143
8b-
8b-
8b-
16a-
16b-
=144
8cc
8cc
8cc
16dd
16ee-
=145
8ff
16ff
16gg
8aa-
16gg
16aa-
=146
16bb-
16aa-
16gg
16ff
8ee-
8r
=147
8r
8bb-
8gg
8r
=148
8r
8gg
8ee-
8r
=149
8r
8ee-
8cc
16a-
16b-
=150
16cc
16b-
16a-
16g
16f
16e-
16d
16c
=151
16B-
16d
16f
16e-
16d
16c
16B-
16A-
=152
16G
16e-
16G
16e-
16A-
16e-
16A-
16e-
=153
16B-
16e-
16B-
16e-
16c
16e-
16c
16e-
=154
16G
16e-
16G
16e-
16A-
16e-
16A-
16e-
=155
16A
16e-
16A
16e-
16B-
16e-
16B-
16e-
=156
16c-
16e-
16c-
16e-
16c-
16e-
16c-
16e-
=157
8c-
16e-
16g-
8cc-
8cc-
=158
8cc-
16g-
16cc-
8ee-
8ee-
=159
8ee-
16cc-
16ee-
8gg-
8gg-
=160
8gg-
16ee-
16gg-
8ccc-
8ccc-
=161
4ccc-
4r
=162
4.r
16ee-
16ff
=163
8gg-
8gg-
8gg-
8r
=164
4.r
16dd
16ee-
=165
8ff
8ff
8ff
8r
=166
4.r
16gg
16aa-
=167
8bb-
8bb-
8bb-
16aa-
16gg
=168
8ff
8ff
8ff
16ff
16gg
=169
8aa-
8aa-
8aa-
16gg
16ff
=170
8ee-
8ee-
8ee-
8cc
=171
8b-
8cc
8b-
8cc
=172
8b-
16ee-
16b-
8a-
16g
16a-
=173
8g
8cc
8b-
8cc
=174
8b-
16ee-
16b-
8a-
16g
16f
=175
4e-
32a-
32b-
8.cc
=176
2r
=177
4B-
32ff
32gg
8.aa-
=178
2r
=179
4r
8g
16r
16a-
=180
8b-
8r
8b-
8r
=181
8b-
8r
8a-
16r
16b-
=182
8cc
8r
8cc
8r
=183
8cc
4r
16g
16a-
=184
8b-
8b-
8b-
16a-
16b-
=185
8cc
8cc
8cc
16dd
16ee-
=186
8ff
16ff
16gg
8aa-
16gg
16aa-
=187
16bb-
16aa-
16gg
16ff
8ee-
16dd
16ccc
=188
16bb-
16aa-
16gg
16ff
8ee-
16dd
16ccc
=189
16bb-
16aa-
16gg
16ff
8ee-
16d
16cc
=190
16b-
16a-
16g
16f
16e-
16d
16c
16B-
=191
8A-
8r
8dd
8r
=192
8ee-
8r
8ff
8r
=193
8gg
4.r
==
*-
